src/Icon/svgs/BellOutline.svg

<svg width="24" height="24" viewBox="0 0 24 24" fill="none" xmlns="http://www.w3.org/2000/svg">
<path fill-rule="evenodd" clip-rule="evenodd" d="M12 2C7.58172 2 4 5.58172 4 10V15.7639L3 17.7639V20H21V17.7639L20 15.7639V10C20 5.58172 16.4183 2 12 2ZM6 10C6 6.68629 8.68629 4 12 4C15.3137 4 18 6.68629 18 10V16.2361L18.882 18H5.11803L6 16.2361V10Z" fill="#1B1C1D"/>
<path d="M12 23C10.8954 23 10 22.1046 10 21H14C14 22.1046 13.1046 23 12 23Z" fill="#1B1C1D"/>
</svg>

<svg xmlns="http://www.w3.org/2000/svg" width="24" height="24" fill="#1B1C1D"><path fill-rule="evenodd" d="M12 2a8 8 0 0 0-8 8v5.764l-1 2V20h18v-2.236l-1-2V10a8 8 0 0 0-8-8zm-6 8a6 6 0 1 1 12 0v6.236L18.882 18H5.118L6 16.236V10z"/><path d="M12 23a2 2 0 0 1-2-2h4a2 2 0 0 1-2 2z"/></svg>
